resources/dark/message.svg

<svg fill="none" height="16" viewBox="0 0 16 16" width="16" xmlns="http://www.w3.org/2000/svg" xmlns:xlink="http://www.w3.org/1999/xlink"><linearGradient id="a" gradientUnits="userSpaceOnUse" x1="8" x2="8" y1="3" y2="12.3334"><stop offset="0" stop-color="#4484f7"/><stop offset="1" stop-color="#b75ef7"/></linearGradient><path d="m8.00119 3c-3.313 0-6.0009 1.93987-6.0009 4.33398 0 1.02724.49383 1.96904 1.31895 2.71292-.18128.4855-.46049.6813-.77303.898-.23129.1605-.67094.4105-.51258.9002.10627.3209.43548.5146.79387.4855 1.20226-.0959 2.31701-.4001 3.27132-.8856.59801.1438 1.23768.223 1.90028.223 3.3151 0 6.0009-1.93783 6.0009-4.33402.0021-2.39411-2.6837-4.33398-5.99881-4.33398zm0 7.6678c-.67719 0-1.36271-.0917-2.02739-.2917-.67302.3959-1.63983.9585-2.80667 1.1252.66677-.5001 1.18351-1.2836 1.27519-1.84197-.79387-.54175-1.44188-1.35229-1.44188-2.32535 0-1.4773 1.79819-3.33383 5.00075-3.33383 3.20251 0 5.00071 1.85653 5.00071 3.33383 0 1.47939-1.7982 3.33382-5.00071 3.33382zm-1.33354-3.33382c0 .55217-.44798 1.00015-1.00014 1.00015-.55217 0-1.00015-.44798-1.00015-1.00015s.44798-1.00015 1.00015-1.00015c.55216 0 1.00014.44798 1.00014 1.00015zm2.33369 0c0 .55217-.44799 1.00015-1.00015 1.00015-.55217 0-1.00015-.44798-1.00015-1.00015s.44798-1.00015 1.00015-1.00015c.55216 0 1.00015.44798 1.00015 1.00015zm2.33366 0c0 .55217-.448 1.00015-1.0001 1.00015-.5522 0-1.00018-.44798-1.00018-1.00015s.44798-1.00015 1.00018-1.00015c.5521 0 1.0001.44798 1.0001 1.00015z" fill="url(#a)"/></svg>

<svg width="16" height="16" viewBox="0 0 16 16" fill="none" xmlns="http://www.w3.org/2000/svg">
<path d="M8.00119 3C4.68819 3 2.00029 4.93987 2.00029 7.33398C2.00029 8.36122 2.49412 9.30302 3.31924 10.0469C3.13796 10.5324 2.85875 10.7282 2.54621 10.9449C2.31492 11.1054 1.87527 11.3554 2.03363 11.8451C2.1399 12.166 2.46911 12.3597 2.8275 12.3306C4.02976 12.2347 5.14451 11.9305 6.09882 11.445C6.69683 11.5888 7.3365 11.668 7.9991 11.668C11.3142 11.668 14 9.73017 14 7.33398C14.0021 4.93987 11.3163 3 8.00119 3ZM8.00119 10.6678C7.324 10.6678 6.63848 10.5761 5.9738 10.3761C5.30078 10.772 4.33397 11.3346 3.16713 11.5013C3.8339 11.0012 4.35064 10.2177 4.44232 9.65933C3.64845 9.11758 3.00044 8.30704 3.00044 7.33398C3.00044 5.85668 4.79863 4.00015 8.00119 4.00015C11.2037 4.00015 13.0019 5.85668 13.0019 7.33398C13.0019 8.81337 11.2037 10.6678 8.00119 10.6678ZM6.66765 7.33398C6.66765 7.88615 6.21967 8.33413 5.66751 8.33413C5.11534 8.33413 4.66736 7.88615 4.66736 7.33398C4.66736 6.78181 5.11534 6.33383 5.66751 6.33383C6.21967 6.33383 6.66765 6.78181 6.66765 7.33398ZM9.00134 7.33398C9.00134 7.88615 8.55335 8.33413 8.00119 8.33413C7.44902 8.33413 7.00104 7.88615 7.00104 7.33398C7.00104 6.78181 7.44902 6.33383 8.00119 6.33383C8.55335 6.33383 9.00134 6.78181 9.00134 7.33398ZM11.335 7.33398C11.335 7.88615 10.887 8.33413 10.3349 8.33413C9.7827 8.33413 9.33472 7.88615 9.33472 7.33398C9.33472 6.78181 9.7827 6.33383 10.3349 6.33383C10.887 6.33383 11.335 6.78181 11.335 7.33398Z" fill="url(#paint0_linear)"/>
<defs>
<linearGradient id="paint0_linear" x1="8" y1="3" x2="8" y2="12.3334" gradientUnits="userSpaceOnUse">
<stop stop-color="#4484F7"/>
<stop offset="1" stop-color="#B75EF7"/>
</linearGradient>
</defs>
</svg>
